Newaita-dark/apps/22/com.github.artemanufrij.webpin.svg

<svg height="22pt" viewBox="0 0 22 22" width="22pt" xmlns="http://www.w3.org/2000/svg" xmlns:xlink="http://www.w3.org/1999/xlink"><linearGradient id="a"><stop offset="0" stop-opacity=".313725"/><stop offset=".222222" stop-opacity=".27451"/><stop offset="1" stop-opacity="0"/></linearGradient><radialGradient id="b" cx="450.90894" cy="189.57936" gradientTransform="matrix(.00000012 -.0537161 -.0966889 -.00000007 34.475434 44.176589)" gradientUnits="userSpaceOnUse" r="21.166656" xlink:href="#a"/><radialGradient id="c" cx="450.90894" cy="189.57936" gradientTransform="matrix(-.00000012 .0537161 .0966889 .00000007 -13.554815 -4.720345)" gradientUnits="userSpaceOnUse" r="21.166656" xlink:href="#a"/><radialGradient id="d" cx="450.90894" cy="189.57936" gradientTransform="matrix(-.00000012 -.0537161 .0966889 -.00000007 -13.554815 44.176589)" gradientUnits="userSpaceOnUse" r="21.166656" xlink:href="#a"/><radialGradient id="e" cx="450.90894" cy="189.57936" gradientTransform="matrix(.00000012 .0537161 -.0966889 .00000007 34.475432 -4.720345)" gradientUnits="userSpaceOnUse" r="21.166656" xlink:href="#a"/><linearGradient id="f" gradientTransform="matrix(.00918504 0 0 .0429729 6.978166 9.693962)" gradientUnits="userSpaceOnUse" x1="255.32306" x2="255.32304" y1="233.5" y2="254.66666"><stop offset="0" stop-opacity=".27451"/><stop offset="1" stop-opacity="0"/></linearGradient><linearGradient id="g" gradientUnits="userSpaceOnUse" x1="10.9151166" x2="10.9151166" y1="19.72813019324" y2="6.08423401351"><stop offset="0" stop-color="#42a5f5"/><stop offset="1" stop-color="#64b5f6"/></linearGradient><linearGradient id="h" gradientUnits="userSpaceOnUse" x1="10.9151166" x2="10.9151166" y1="18.36374195676" y2="1.99106705676"><stop offset="0" stop-color="#bdbdbd"/><stop offset="1" stop-color="#e0e0e0"/></linearGradient><path d="m16.371094 19.726562h1.820312v-.90625h-1.820312zm0 0" fill="url(#b)"/><path d="m4.546875 19.726562h-1.816406v.910157h1.816406zm0 0" fill="url(#c)"/><path d="m4.546875 19.726562h-1.816406v-.90625h1.816406zm0 0" fill="url(#d)"/><path d="m16.371094 19.726562h1.820312v.910157h-1.820312zm0 0" fill="url(#e)"/><path d="m4.546875 19.5h11.824219v1.136719h-11.824219zm0 0" fill="url(#f)"/><path d="m10.449219 6.078125c-3.527344 0-6.363281 2.996094-6.363281 6.722656v.195313c0 .121094 0 .242187.007812.363281-1.53125.097656-2.738281 1.40625-2.738281 3.015625v.324219c0 1.671875 1.304687 3.019531 2.921875 3.019531h2.542968v.007812h9.550782c2.519531 0 4.550781-2.027343 4.550781-4.546874 0-2.484376-1.972656-4.488282-4.441406-4.546876-.847657-2.65625-3.222657-4.554687-6.03125-4.554687zm0 0" fill="url(#g)"/><path d="m4.53125 13.359375c-1.773438 0-3.199219 1.421875-3.199219 3.183594v.144531c.074219-1.699219 1.472657-3.042969 3.199219-3.042969s3.121094 1.34375 3.195312 3.042969c.003907-.046875.003907-.09375.003907-.144531 0-1.761719-1.425781-3.183594-3.199219-3.183594zm0 0" fill="#fafafa" fill-opacity=".392157"/><path d="m10.449219 6.078125c-3.527344 0-6.363281 2.996094-6.363281 6.722656v.195313.074218c.039062-3.6875 2.863281-6.644531 6.363281-6.644531 2.808593 0 5.183593 1.898438 6.03125 4.554688 2.414062.058593 4.347656 1.96875 4.4375 4.371093 0-.054687.003906-.113281.003906-.171874 0-2.484376-1.972656-4.488282-4.441406-4.546876-.847657-2.65625-3.222657-4.554687-6.03125-4.554687zm-6.363281 7.28125c-1.53125.105469-2.730469 1.410156-2.730469 3.015625v.324219.011719c.007812-1.601563 1.210937-2.90625 2.738281-3.003907-.007812-.113281-.007812-.230469-.007812-.347656zm0 0" fill="#fff" fill-opacity=".392157"/><path d="m4.085938 12.722656v.078125.195313.015625h.007812c-.003906-.097657-.007812-.191407-.007812-.289063zm16.832031 2.28125c-.089844 2.4375-2.082031 4.375-4.546875 4.375h-9.550782v-.007812h-2.542968c-1.613282 0-2.914063-1.339844-2.921875-3.007813v.011719.324219c0 1.671875 1.304687 3.019531 2.921875 3.019531h2.542968v.007812h9.550782c2.519531 0 4.550781-2.027343 4.550781-4.546874 0-.058594-.003906-.117188-.003906-.175782zm0 0" fill-opacity=".235294"/><path d="m16.488281 10.632812c-2.457031 0-4.4375 2.027344-4.4375 4.546876 0 .058593.003907.113281.003907.171874.085937-2.441406 2.03125-4.378906 4.433593-4.378906 2.398438 0 4.34375 1.9375 4.429688 4.378906 0-.058593.003906-.113281.003906-.171874 0-2.519532-1.980469-4.546876-4.433594-4.546876zm0 0" fill="#fafafa" fill-opacity=".392157"/><path d="m10.449219 6.011719c-3.5625 0-6.429688 3.03125-6.429688 6.789062v.195313c0 .101562.003907.203125.007813.304687-1.535156.132813-2.738282 1.453125-2.738282 3.074219v.324219c0 1.707031 1.335938 3.085937 2.988282 3.085937h2.515625c.011719.003906.019531.007813.027343.007813h9.550782c2.554687 0 4.613281-2.058594 4.613281-4.613281 0-2.503907-1.972656-4.527344-4.457031-4.609376-.867188-2.65625-3.253906-4.558593-6.078125-4.558593zm0 .128906c2.78125 0 5.128906 1.882813 5.972656 4.511719.007813.027344.03125.042968.058594.042968 2.433593.058594 4.375 2.035157 4.375 4.484376 0 2.484374-1.996094 4.484374-4.484375 4.484374h-9.523438c-.007812-.003906-.015625-.007812-.027344-.007812h-2.542968c-1.582032 0-2.859375-1.316406-2.859375-2.957031v-.324219c0-1.578125 1.179687-2.855469 2.679687-2.949219.035156-.003906.0625-.035156.058594-.070312-.003906-.117188-.007812-.238281-.007812-.359375v-.195313c0-3.691406 2.8125-6.660156 6.300781-6.660156zm0 0" fill="#212121"/><path d="m5.597656 1.882812c-.574218-.011718-1.0625.414063-1.132812.984376-.648438 4.800781.609375 9.675781 1.46875 13.441406.101562.445312.464844.785156.914062.855468.453125.070313.902344-.140624 1.136719-.53125l2.816406-4.746093 1.453125 5.320312c.121094.441407.5.765625.953125.816407.453125.050781.894531-.179688 1.109375-.582032 1.835938-3.417968 4.363282-7.980468 4.984375-12.570312.058594-.398438-.101562-.800782-.421875-1.046875-.316406-.246094-.742187-.304688-1.113281-.148438-.371094.152344-.632813.496094-.679687.894531-.414063 3.0625-1.914063 6.386719-3.421876 9.320313l-1.40625-5.136719c-.117187-.429687-.480468-.75-.925781-.808594-.445312-.0625-.882812.148438-1.109375.535157l-2.726562 4.589843c-.683594-3.175781-1.253906-6.660156-.816406-9.90625.046874-.316406-.042969-.640624-.25-.886718-.210938-.246094-.511719-.390625-.832032-.394532zm0 0" fill="url(#h)"/><path d="m5.597656 1.882812c-.574218-.011718-1.0625.414063-1.132812.984376-.132813.980468-.183594 1.96875-.179688 2.945312.007813-.863281.0625-1.730469.179688-2.597656.070312-.570313.558594-.996094 1.132812-.984375.539063.011719.996094.410156 1.082032.945312 0-.003906 0-.007812 0-.011719.046874-.316406-.042969-.640624-.25-.886718-.210938-.246094-.511719-.390625-.832032-.394532zm12.617188 1.707032c-.574219-.011719-1.0625.414062-1.128906.980468-.414063 3.0625-1.914063 6.386719-3.421876 9.320313l-1.40625-5.136719c-.117187-.429687-.480468-.75-.925781-.808594-.445312-.0625-.882812.148438-1.109375.535157l-2.726562 4.589843c-.496094-2.3125-.9375-4.789062-.96875-7.21875v.453126c0-.035157 0-.070313 0-.105469.03125 2.429687.472656 4.90625.96875 7.21875l2.726562-4.589844c.226563-.386719.664063-.597656 1.109375-.535156.445313.058593.808594.378906.925781.808593l1.40625 5.136719c1.507813-2.933593 3.007813-6.257812 3.421876-9.320312.066406-.566407.554687-.992188 1.128906-.980469.542968.007812 1 .40625 1.082031.941406 0 0 0-.003906.003906-.007812.046875-.320313-.046875-.640625-.253906-.886719s-.511719-.390625-.832031-.394531zm0 0" fill="#fff" fill-opacity=".784314"/><path d="m4.640625 10.035156c-.019531.050782-.042969.105469-.0625.15625.335937 2.433594.902344 4.734375 1.355469 6.722656.101562.449219.464844.785157.914062.855469.453125.070313.902344-.140625 1.136719-.53125l2.816406-4.746093 1.453125 5.320312c.121094.441406.5.765625.953125.816406.453125.050782.894531-.179687 1.109375-.582031 1.105469-2.058594 2.464844-4.535156 3.503906-7.183594-.070312-.023437-.144531-.042969-.21875-.066406-1.003906 2.445313-2.253906 4.726563-3.285156 6.644531-.214844.402344-.65625.632813-1.109375.582032-.453125-.050782-.832031-.375-.953125-.816407l-1.453125-5.320312-2.816406 4.746093c-.234375.390626-.683594.601563-1.136719.53125-.449218-.070312-.8125-.410156-.914062-.855468-.425782-1.867188-.949219-4.007813-1.292969-6.273438zm0 0" fill-opacity=".235294"/><path d="m130.260288-171.186002c-13.36236-.272701-24.724912 9.635443-26.361119 22.906903-15.089468 111.716605 14.180464 225.160317 34.178554 312.788312 2.363411 10.362647 10.817149 18.270983 21.270696 19.90719 10.544448 1.636207 20.997995-3.272415 26.45202-12.362456l65.539196-110.443998 33.814952 123.806359c2.817913 10.271746 11.635253 17.81648 22.1797 18.998185 10.544448 1.181706 20.816194-4.181419 25.815717-13.544161 42.723193-79.537859 101.535758-185.709538 115.988924-292.51752 1.363506-9.271842-2.363411-18.634584-9.817245-24.36131-7.362933-5.726726-17.271078-7.090232-25.906617-3.454216-8.635539 3.545116-14.725866 11.544352-15.816671 20.816194-9.635444 71.265922-44.541201 148.622171-79.62876 216.888379l-32.724147-119.534039c-2.727013-9.999046-11.180751-17.452879-21.543398-18.816385-10.362646-1.454407-20.543492 3.454215-25.815716 12.453356l-63.448487 106.807982c-15.907571-73.902034-29.179031-154.9852-18.998185-230.523441 1.090805-7.362933-.999905-14.907667-5.817627-20.634393-4.908622-5.726726-11.907953-9.090041-19.361787-9.180941zm0 0" fill="none" stroke="#212121" stroke-linecap="round" stroke-linejoin="round" stroke-width="3" transform="matrix(.0429729 0 0 .0429729 0 9.239163)"/></svg>

<?xml version="1.0" encoding="UTF-8"?>
<svg xmlns="http://www.w3.org/2000/svg" xmlns:xlink="http://www.w3.org/1999/xlink" width="22pt" height="22pt" viewBox="0 0 22 22" version="1.1">
<defs>
<radialGradient id="radial0" gradientUnits="userSpaceOnUse" cx="450.90894" cy="189.57936" fx="450.90894" fy="189.57936" r="21.166656" gradientTransform="matrix(0.000000119742,-0.0537161,-0.0966889,-0.0000000698078,34.475434,44.176589)">
<stop offset="0" style="stop-color:rgb(0%,0%,0%);stop-opacity:0.313725;"/>
<stop offset="0.222222" style="stop-color:rgb(0%,0%,0%);stop-opacity:0.27451;"/>
<stop offset="1" style="stop-color:rgb(0%,0%,0%);stop-opacity:0;"/>
</radialGradient>
<radialGradient id="radial1" gradientUnits="userSpaceOnUse" cx="450.90894" cy="189.57936" fx="450.90894" fy="189.57936" r="21.166656" gradientTransform="matrix(-0.000000119742,0.0537161,0.0966889,0.0000000698078,-13.554815,-4.720345)">
<stop offset="0" style="stop-color:rgb(0%,0%,0%);stop-opacity:0.313725;"/>
<stop offset="0.222222" style="stop-color:rgb(0%,0%,0%);stop-opacity:0.27451;"/>
<stop offset="1" style="stop-color:rgb(0%,0%,0%);stop-opacity:0;"/>
</radialGradient>
<radialGradient id="radial2" gradientUnits="userSpaceOnUse" cx="450.90894" cy="189.57936" fx="450.90894" fy="189.57936" r="21.166656" gradientTransform="matrix(-0.000000119742,-0.0537161,0.0966889,-0.0000000698078,-13.554815,44.176589)">
<stop offset="0" style="stop-color:rgb(0%,0%,0%);stop-opacity:0.313725;"/>
<stop offset="0.222222" style="stop-color:rgb(0%,0%,0%);stop-opacity:0.27451;"/>
<stop offset="1" style="stop-color:rgb(0%,0%,0%);stop-opacity:0;"/>
</radialGradient>
<radialGradient id="radial3" gradientUnits="userSpaceOnUse" cx="450.90894" cy="189.57936" fx="450.90894" fy="189.57936" r="21.166656" gradientTransform="matrix(0.000000119742,0.0537161,-0.0966889,0.0000000698078,34.475432,-4.720345)">
<stop offset="0" style="stop-color:rgb(0%,0%,0%);stop-opacity:0.313725;"/>
<stop offset="0.222222" style="stop-color:rgb(0%,0%,0%);stop-opacity:0.27451;"/>
<stop offset="1" style="stop-color:rgb(0%,0%,0%);stop-opacity:0;"/>
</radialGradient>
<linearGradient id="linear0" gradientUnits="userSpaceOnUse" x1="255.32306" y1="233.5" x2="255.32304" y2="254.66666" gradientTransform="matrix(0.00918504,0,0,0.0429729,6.978166,9.693962)">
<stop offset="0" style="stop-color:rgb(0%,0%,0%);stop-opacity:0.27451;"/>
<stop offset="1" style="stop-color:rgb(0%,0%,0%);stop-opacity:0;"/>
</linearGradient>
<linearGradient id="linear1" gradientUnits="userSpaceOnUse" x1="254" y1="191.16667" x2="254" y2="-126.33334" gradientTransform="matrix(0.0429729,0,0,0.0429729,0,11.513144)">
<stop offset="0" style="stop-color:rgb(25.882353%,64.705882%,96.078431%);stop-opacity:1;"/>
<stop offset="1" style="stop-color:rgb(39.215686%,70.980392%,96.470588%);stop-opacity:1;"/>
</linearGradient>
<linearGradient id="linear2" gradientUnits="userSpaceOnUse" x1="254" y1="212.33333" x2="254" y2="-168.66667" gradientTransform="matrix(0.0429729,0,0,0.0429729,0,9.239163)">
<stop offset="0" style="stop-color:rgb(74.117647%,74.117647%,74.117647%);stop-opacity:1;"/>
<stop offset="1" style="stop-color:rgb(87.843137%,87.843137%,87.843137%);stop-opacity:1;"/>
</linearGradient>
</defs>
<g id="surface1">
<path style=" stroke:none;fill-rule:nonzero;fill:url(#radial0);" d="M 16.371094 19.726562 L 18.191406 19.726562 L 18.191406 18.820312 L 16.371094 18.820312 Z M 16.371094 19.726562 "/>
<path style=" stroke:none;fill-rule:nonzero;fill:url(#radial1);" d="M 4.546875 19.726562 L 2.730469 19.726562 L 2.730469 20.636719 L 4.546875 20.636719 Z M 4.546875 19.726562 "/>
<path style=" stroke:none;fill-rule:nonzero;fill:url(#radial2);" d="M 4.546875 19.726562 L 2.730469 19.726562 L 2.730469 18.820312 L 4.546875 18.820312 Z M 4.546875 19.726562 "/>
<path style=" stroke:none;fill-rule:nonzero;fill:url(#radial3);" d="M 16.371094 19.726562 L 18.191406 19.726562 L 18.191406 20.636719 L 16.371094 20.636719 Z M 16.371094 19.726562 "/>
<path style=" stroke:none;fill-rule:nonzero;fill:url(#linear0);" d="M 4.546875 19.5 L 16.371094 19.5 L 16.371094 20.636719 L 4.546875 20.636719 Z M 4.546875 19.5 "/>
<path style=" stroke:none;fill-rule:nonzero;fill:url(#linear1);" d="M 10.449219 6.078125 C 6.921875 6.078125 4.085938 9.074219 4.085938 12.800781 L 4.085938 12.996094 C 4.085938 13.117188 4.085938 13.238281 4.09375 13.359375 C 2.5625 13.457031 1.355469 14.765625 1.355469 16.375 L 1.355469 16.699219 C 1.355469 18.371094 2.660156 19.71875 4.277344 19.71875 L 6.820312 19.71875 L 6.820312 19.726562 L 16.371094 19.726562 C 18.890625 19.726562 20.921875 17.699219 20.921875 15.179688 C 20.921875 12.695312 18.949219 10.691406 16.480469 10.632812 C 15.632812 7.976562 13.257812 6.078125 10.449219 6.078125 Z M 10.449219 6.078125 "/>
<path style=" stroke:none;fill-rule:nonzero;fill:rgb(98.039216%,98.039216%,98.039216%);fill-opacity:0.392157;" d="M 4.53125 13.359375 C 2.757812 13.359375 1.332031 14.78125 1.332031 16.542969 C 1.332031 16.59375 1.332031 16.640625 1.332031 16.6875 C 1.40625 14.988281 2.804688 13.644531 4.53125 13.644531 C 6.257812 13.644531 7.652344 14.988281 7.726562 16.6875 C 7.730469 16.640625 7.730469 16.59375 7.730469 16.542969 C 7.730469 14.78125 6.304688 13.359375 4.53125 13.359375 Z M 4.53125 13.359375 "/>
<path style=" stroke:none;fill-rule:nonzero;fill:rgb(100%,100%,100%);fill-opacity:0.392157;" d="M 10.449219 6.078125 C 6.921875 6.078125 4.085938 9.074219 4.085938 12.800781 L 4.085938 12.996094 C 4.085938 13.019531 4.085938 13.046875 4.085938 13.070312 C 4.125 9.382812 6.949219 6.425781 10.449219 6.425781 C 13.257812 6.425781 15.632812 8.324219 16.480469 10.980469 C 18.894531 11.039062 20.828125 12.949219 20.917969 15.351562 C 20.917969 15.296875 20.921875 15.238281 20.921875 15.179688 C 20.921875 12.695312 18.949219 10.691406 16.480469 10.632812 C 15.632812 7.976562 13.257812 6.078125 10.449219 6.078125 Z M 4.085938 13.359375 C 2.554688 13.464844 1.355469 14.769531 1.355469 16.375 L 1.355469 16.699219 C 1.355469 16.703125 1.355469 16.707031 1.355469 16.710938 C 1.363281 15.109375 2.566406 13.804688 4.09375 13.707031 C 4.085938 13.59375 4.085938 13.476562 4.085938 13.359375 Z M 4.085938 13.359375 "/>
<path style=" stroke:none;fill-rule:nonzero;fill:rgb(0%,0%,0%);fill-opacity:0.235294;" d="M 4.085938 12.722656 C 4.085938 12.75 4.085938 12.773438 4.085938 12.800781 L 4.085938 12.996094 C 4.085938 13 4.085938 13.007812 4.085938 13.011719 C 4.085938 13.011719 4.089844 13.011719 4.09375 13.011719 C 4.089844 12.914062 4.085938 12.820312 4.085938 12.722656 Z M 20.917969 15.003906 C 20.828125 17.441406 18.835938 19.378906 16.371094 19.378906 L 6.820312 19.378906 L 6.820312 19.371094 L 4.277344 19.371094 C 2.664062 19.371094 1.363281 18.03125 1.355469 16.363281 C 1.355469 16.367188 1.355469 16.371094 1.355469 16.375 L 1.355469 16.699219 C 1.355469 18.371094 2.660156 19.71875 4.277344 19.71875 L 6.820312 19.71875 L 6.820312 19.726562 L 16.371094 19.726562 C 18.890625 19.726562 20.921875 17.699219 20.921875 15.179688 C 20.921875 15.121094 20.917969 15.0625 20.917969 15.003906 Z M 20.917969 15.003906 "/>
<path style=" stroke:none;fill-rule:nonzero;fill:rgb(98.039216%,98.039216%,98.039216%);fill-opacity:0.392157;" d="M 16.488281 10.632812 C 14.03125 10.632812 12.050781 12.660156 12.050781 15.179688 C 12.050781 15.238281 12.054688 15.292969 12.054688 15.351562 C 12.140625 12.910156 14.085938 10.972656 16.488281 10.972656 C 18.886719 10.972656 20.832031 12.910156 20.917969 15.351562 C 20.917969 15.292969 20.921875 15.238281 20.921875 15.179688 C 20.921875 12.660156 18.941406 10.632812 16.488281 10.632812 Z M 16.488281 10.632812 "/>
<path style=" stroke:none;fill-rule:nonzero;fill:rgb(12.941176%,12.941176%,12.941176%);fill-opacity:1;" d="M 10.449219 6.011719 C 6.886719 6.011719 4.019531 9.042969 4.019531 12.800781 L 4.019531 12.996094 C 4.019531 13.097656 4.023438 13.199219 4.027344 13.300781 C 2.492188 13.433594 1.289062 14.753906 1.289062 16.375 L 1.289062 16.699219 C 1.289062 18.40625 2.625 19.785156 4.277344 19.785156 L 6.792969 19.785156 C 6.804688 19.789062 6.8125 19.792969 6.820312 19.792969 L 16.371094 19.792969 C 18.925781 19.792969 20.984375 17.734375 20.984375 15.179688 C 20.984375 12.675781 19.011719 10.652344 16.527344 10.570312 C 15.660156 7.914062 13.273438 6.011719 10.449219 6.011719 Z M 10.449219 6.140625 C 13.230469 6.140625 15.578125 8.023438 16.421875 10.652344 C 16.429688 10.679688 16.453125 10.695312 16.480469 10.695312 C 18.914062 10.753906 20.855469 12.730469 20.855469 15.179688 C 20.855469 17.664062 18.859375 19.664062 16.371094 19.664062 L 6.847656 19.664062 C 6.839844 19.660156 6.832031 19.65625 6.820312 19.65625 L 4.277344 19.65625 C 2.695312 19.65625 1.417969 18.339844 1.417969 16.699219 L 1.417969 16.375 C 1.417969 14.796875 2.597656 13.519531 4.097656 13.425781 C 4.132812 13.421875 4.160156 13.390625 4.15625 13.355469 C 4.152344 13.238281 4.148438 13.117188 4.148438 12.996094 L 4.148438 12.800781 C 4.148438 9.109375 6.960938 6.140625 10.449219 6.140625 Z M 10.449219 6.140625 "/>
<path style=" stroke:none;fill-rule:nonzero;fill:url(#linear2);" d="M 5.597656 1.882812 C 5.023438 1.871094 4.535156 2.296875 4.464844 2.867188 C 3.816406 7.667969 5.074219 12.542969 5.933594 16.308594 C 6.035156 16.753906 6.398438 17.09375 6.847656 17.164062 C 7.300781 17.234375 7.75 17.023438 7.984375 16.632812 L 10.800781 11.886719 L 12.253906 17.207031 C 12.375 17.648438 12.753906 17.972656 13.207031 18.023438 C 13.660156 18.074219 14.101562 17.84375 14.316406 17.441406 C 16.152344 14.023438 18.679688 9.460938 19.300781 4.871094 C 19.359375 4.472656 19.199219 4.070312 18.878906 3.824219 C 18.5625 3.578125 18.136719 3.519531 17.765625 3.675781 C 17.394531 3.828125 17.132812 4.171875 17.085938 4.570312 C 16.671875 7.632812 15.171875 10.957031 13.664062 13.890625 L 12.257812 8.753906 C 12.140625 8.324219 11.777344 8.003906 11.332031 7.945312 C 10.886719 7.882812 10.449219 8.09375 10.222656 8.480469 L 7.496094 13.070312 C 6.8125 9.894531 6.242188 6.410156 6.679688 3.164062 C 6.726562 2.847656 6.636719 2.523438 6.429688 2.277344 C 6.21875 2.03125 5.917969 1.886719 5.597656 1.882812 Z M 5.597656 1.882812 "/>
<path style=" stroke:none;fill-rule:nonzero;fill:rgb(100%,100%,100%);fill-opacity:0.784314;" d="M 5.597656 1.882812 C 5.023438 1.871094 4.535156 2.296875 4.464844 2.867188 C 4.332031 3.847656 4.28125 4.835938 4.285156 5.8125 C 4.292969 4.949219 4.347656 4.082031 4.464844 3.214844 C 4.535156 2.644531 5.023438 2.21875 5.597656 2.230469 C 6.136719 2.242188 6.59375 2.640625 6.679688 3.175781 C 6.679688 3.171875 6.679688 3.167969 6.679688 3.164062 C 6.726562 2.847656 6.636719 2.523438 6.429688 2.277344 C 6.21875 2.03125 5.917969 1.886719 5.597656 1.882812 Z M 18.214844 3.589844 C 17.640625 3.578125 17.152344 4.003906 17.085938 4.570312 C 16.671875 7.632812 15.171875 10.957031 13.664062 13.890625 L 12.257812 8.753906 C 12.140625 8.324219 11.777344 8.003906 11.332031 7.945312 C 10.886719 7.882812 10.449219 8.09375 10.222656 8.480469 L 7.496094 13.070312 C 7 10.757812 6.558594 8.28125 6.527344 5.851562 C 6.527344 6 6.527344 6.152344 6.527344 6.304688 C 6.527344 6.269531 6.527344 6.234375 6.527344 6.199219 C 6.558594 8.628906 7 11.105469 7.496094 13.417969 L 10.222656 8.828125 C 10.449219 8.441406 10.886719 8.230469 11.332031 8.292969 C 11.777344 8.351562 12.140625 8.671875 12.257812 9.101562 L 13.664062 14.238281 C 15.171875 11.304688 16.671875 7.980469 17.085938 4.917969 C 17.152344 4.351562 17.640625 3.925781 18.214844 3.9375 C 18.757812 3.945312 19.214844 4.34375 19.296875 4.878906 C 19.296875 4.878906 19.296875 4.875 19.300781 4.871094 C 19.347656 4.550781 19.253906 4.230469 19.046875 3.984375 C 18.839844 3.738281 18.535156 3.59375 18.214844 3.589844 Z M 18.214844 3.589844 "/>
<path style=" stroke:none;fill-rule:nonzero;fill:rgb(0%,0%,0%);fill-opacity:0.235294;" d="M 4.640625 10.035156 C 4.621094 10.085938 4.597656 10.140625 4.578125 10.191406 C 4.914062 12.625 5.480469 14.925781 5.933594 16.914062 C 6.035156 17.363281 6.398438 17.699219 6.847656 17.769531 C 7.300781 17.839844 7.75 17.628906 7.984375 17.238281 L 10.800781 12.492188 L 12.253906 17.8125 C 12.375 18.253906 12.753906 18.578125 13.207031 18.628906 C 13.660156 18.679688 14.101562 18.449219 14.316406 18.046875 C 15.421875 15.988281 16.78125 13.511719 17.820312 10.863281 C 17.75 10.839844 17.675781 10.820312 17.601562 10.796875 C 16.597656 13.242188 15.347656 15.523438 14.316406 17.441406 C 14.101562 17.84375 13.660156 18.074219 13.207031 18.023438 C 12.753906 17.972656 12.375 17.648438 12.253906 17.207031 L 10.800781 11.886719 L 7.984375 16.632812 C 7.75 17.023438 7.300781 17.234375 6.847656 17.164062 C 6.398438 17.09375 6.035156 16.753906 5.933594 16.308594 C 5.507812 14.441406 4.984375 12.300781 4.640625 10.035156 Z M 4.640625 10.035156 "/>
<path style="fill:none;stroke-width:3;stroke-linecap:round;stroke-linejoin:round;stroke:rgb(12.941176%,12.941176%,12.941176%);stroke-opacity:1;stroke-miterlimit:4;" d="M 130.260288 -171.186002 C 116.897928 -171.458703 105.535376 -161.550559 103.899169 -148.279099 C 88.809701 -36.562494 118.079633 76.881218 138.077723 164.509213 C 140.441134 174.87186 148.894872 182.780196 159.348419 184.416403 C 169.892867 186.05261 180.346414 181.143988 185.800439 172.053947 L 251.339635 61.609949 L 285.154587 185.416308 C 287.9725 195.688054 296.78984 203.232788 307.334287 204.414493 C 317.878735 205.596199 328.150481 200.233074 333.150004 190.870332 C 375.873197 111.332473 434.685762 5.160794 449.138928 -101.647188 C 450.502434 -110.91903 446.775517 -120.281772 439.321683 -126.008498 C 431.95875 -131.735224 422.050605 -133.09873 413.415066 -129.462714 C 404.779527 -125.917598 398.6892 -117.918362 397.598395 -108.64652 C 387.962951 -37.380598 353.057194 39.975651 317.969635 108.241859 L 285.245488 -11.29218 C 282.518475 -21.291226 274.064737 -28.745059 263.70209 -30.108565 C 253.339444 -31.562972 243.158598 -26.65435 237.886374 -17.655209 L 174.437887 89.152773 C 158.530316 15.250739 145.258856 -65.832427 155.439702 -141.370668 C 156.530507 -148.733601 154.439797 -156.278335 149.622075 -162.005061 C 144.713453 -167.731787 137.714122 -171.095102 130.260288 -171.186002 Z M 130.260288 -171.186002 " transform="matrix(0.0429729,0,0,0.0429729,0,9.239163)"/>
</g>
</svg>
